assets/euphorika-logo.svg

<svg xmlns="http://www.w3.org/2000/svg" viewBox="0 0 512 512"><path d="M-.1 0v512H512V0H-.1zm115.2 232.5h234.8v47H115.1v-47zm281.8 140.9H162.1v-47h234.8v47zm0-187.9H162.1v-47h234.8v47z"/></svg>

<?xml version="1.0" encoding="utf-8"?>
<!-- Generator: Adobe Illustrator 21.1.0, SVG Export Plug-In . SVG Version: 6.00 Build 0)  -->
<!DOCTYPE svg PUBLIC "-//W3C//DTD SVG 1.1//EN" "http://www.w3.org/Graphics/SVG/1.1/DTD/svg11.dtd">
<svg version="1.1" id="Ebene_19" xmlns="http://www.w3.org/2000/svg" xmlns:xlink="http://www.w3.org/1999/xlink" x="0px" y="0px"
	 viewBox="0 0 512 512" style="enable-background:new 0 0 512 512;" xml:space="preserve">
<path d="M-0.1,0V512h512.1V0H-0.1z M115.1,232.5h234.8v47H115.1V232.5z M396.9,373.4H162.1v-47h234.8V373.4z M396.9,185.5H162.1v-47
	h234.8V185.5z"/>
</svg>
